modules/hawcons-filled/icons/document-recording.svg

<?xml version="1.0" encoding="UTF-8" standalone="no"?>
<svg width="32px" height="32px" viewBox="0 0 32 32" version="1.1" xmlns="http://www.w3.org/2000/svg" xmlns:xlink="http://www.w3.org/1999/xlink" xmlns:sketch="http://www.bohemiancoding.com/sketch/ns">
    <!-- Generator: Sketch 3.0.3 (7891) - http://www.bohemiancoding.com/sketch -->
    <title>icon 61 document recording</title>
    <desc>Created with Sketch.</desc>
    <defs></defs>
    <g id="Page-1" stroke="none" stroke-width="1" fill="none" fill-rule="evenodd" sketch:type="MSPage">
        <g id="icon-61-document-recording" sketch:type="MSArtboardGroup" fill="#929292">
            <path d="M19,3 L9.0085302,3 C7.8992496,3 7,3.89833832 7,5.00732994 L7,27.9926701 C7,29.1012878 7.89092539,30 8.99742191,30 L24.0025781,30 C25.1057238,30 26,29.1090746 26,28.0025781 L26,11 L21.0059191,11 C19.8980806,11 19,10.1132936 19,9.00189865 L19,3 L19,3 Z M13,20.4945942 L13,19 L14,19 L14,20.4926111 C14,21.8774037 15.1096621,23 16.5,23 C17.8807119,23 19,21.8753289 19,20.4926111 L19,19 L20,19 L20,20.4945942 C20,22.2621437 18.6961471,23.7217906 17,23.9645376 L17,26 L19,26 L19,27 L14,27 L14,26 L16,26 L16,23.964377 C14.3066821,23.7210154 13,22.2602538 13,20.4945942 L13,20.4945942 Z M20,3 L20,8.99707067 C20,9.55097324 20.4509752,10 20.990778,10 L26,10 L20,3 L20,3 Z M15,16.5016756 L15,20.4983244 C15,21.3276769 15.6657972,22 16.5,22 C17.3284271,22 18,21.3288106 18,20.4983244 L18,16.5016756 C18,15.6723231 17.3342028,15 16.5,15 C15.6715729,15 15,15.6711894 15,16.5016756 L15,16.5016756 Z M16.5,16 C16.2238576,16 16,16.2148438 16,16.4976988 L16,20.5023012 C16,20.7771727 16.2319336,21 16.5,21 C16.7761424,21 17,20.7851562 17,20.5023012 L17,16.4976988 C17,16.2228273 16.7680664,16 16.5,16 L16.5,16 Z" id="document-recording" sketch:type="MSShapeGroup"></path>
        </g>
    </g>
</svg>

<svg width="32" height="32" viewBox="0 0 32 32" xmlns="http://www.w3.org/2000/svg"><path d="M19 3H9.009C7.899 3 7 3.898 7 5.007v22.986A2 2 0 0 0 8.997 30h15.006C25.106 30 26 29.11 26 28.003V11h-4.994A1.997 1.997 0 0 1 19 9.002V3zm-6 17.495V19h1v1.493A2.498 2.498 0 0 0 16.5 23c1.38 0 2.5-1.125 2.5-2.507V19h1v1.495a3.503 3.503 0 0 1-3 3.47V26h2v1h-5v-1h2v-2.036a3.507 3.507 0 0 1-3-3.47zM20 3v5.997c0 .554.451 1.003.99 1.003H26l-6-7zm-5 13.502v3.996a1.5 1.5 0 0 0 3 0v-3.996a1.5 1.5 0 0 0-3 0zM16.5 16c-.276 0-.5.215-.5.498v4.004c0 .275.232.498.5.498.276 0 .5-.215.5-.498v-4.004a.504.504 0 0 0-.5-.498z" fill="#929292" fill-rule="evenodd"/></svg>
